X: 5952
T: Campbell River
R: jig
M: 6/8
K: Bminor
|:c|dcd c^Bc|BFE DFE|DD/E/F Bcd|cA^G A2 B/c/|
d3 cdc|BFE DEF|BB/c/d cAc|B3- B2:|
|:c|dcd B^AB|e^de AA/B/c|d2 d Bcd|e3 cde|
fed BFE|D2 F/E/ DEF|Bcd cA/B/c|B3- B2:|

